X: 42058
T: Waltz In The House
R: waltz
M: 3/4
K: Aminor
ed|e2 a2 a2|a2 b3 a|g2 e2 g2|G2 A2 B2|c4 Bc|d2 c2 d2|e6|e4
ed|e2 a2 a2|a2 b3 a|g2 e2 g2|G2 A2 B2|c4 Bc|d2 B2 G2|A6|A4:|
|:AG|E2 A2 A2|A2 d3 c|B2 A2 B2|G3 ABG|A4 AA|A2 B2 d2|e3 Ae2|A4
ed|e2 a2 a2|a2 b3 a|g2 e2 g2|G2 A2 B2|c4 Bc|d2 B2 G2|A6|A4:|

